X:55
T:Fanby Pablic
Z: id:dc-reel-116
M:C
L:1/8
K:G Major
dog2|c2Bc ABcA|GFGA Bdge|dcBA GABc|dBcA BGGc|ABcA AGGA|!
Bcdg bgdB|c2ec Aced|(3BBc dgfe|]!
dcAG Adfd|cAGE SDD2:|[2 cAFA G2:|!